X: 32652
T: Plough And The Stars, The
R: reel
M: 4/4
K: Gmajor
|:"G"GEDE GABd|"G"g2 bg "C"aged|"G"Bd (3ded ed (3ded|"G"gedB "D"AcBA|
"G"GEDE GABd|"G"g2 bg "C"aged|"G"Bd (3ded "C"gedB|1 "D"AcBA "G"G2 BA:|2 "D" AcBA "G"G2 Bd||
|:"G"g2gb "C"a2ba|"G"gabg "C"aged|"G"Bd (3ded ed (3ded|"G"gedB "D"AcBA|
"G"GEDE GABd|"G"g2 bg "C"aged|"G"Bd (3ded "C"gedB|1 "D"AcBA "G"G2 Bd:|2 "D" AcBA "G"G4||

